cached_logos/container-network-interface-cni.svg

<svg viewBox="-6.50 -6.50 577.00 806.00" xmlns="http://www.w3.org/2000/svg"><title>Container Network Interface (CNI)</title><path fill="#00b0ad" d="M428.4 104l-1.9-1L298.6 9.6 83.8 171l41.1 30h-.1L301 329.6 516.1 168l-87.7-64zm-286.1 36.4l115.8-87 32.3 23.5-115.8 87-32.3-23.5zm189.9 91.3l-31.9 24-116.7-85.2 115.7-86.9 75.5 55.1-83.8 63 41.2 30zm51.6-86.4l32.2 23.5-74.9 56.2-32.2-23.5 74.9-56.2zm47.4 25.8l2.2-1.9.7-.5-41.3-30.1 31.9-24 73.5 53.6-115.8 87-32-23.3 80.8-60.8zm-47.4-39.2L267 46.7l31.7-23.8 116.7 85.2-31.6 23.8zm-250.4 15.2l32.3 23.5-31.7 23.8-32.3-23.5 31.7-23.8zm41.3 30.1l117 85.4-31.7 23.8L143 201l31.7-23.8zm166.8 61.3l32 23.3-72.5 54.5-32-23.3 72.5-54.5z"/><path fill="#003b49" d="M168 759.8S147.6 785 104.8 785c-56.2 0-95.1-43.7-95.1-99.9 0-56.8 38.9-100.2 95.1-100.2 42.8 0 63.2 24.9 63.2 24.9l-10.2 14s-19.5-21.7-52.6-21.7c-45.3 0-76.6 37.6-76.6 83 0 45 31.3 82.6 76.6 82.6 33.2 0 52.6-21.7 52.6-21.7l10.2 13.8zm245.1 20.7h-14L273.6 620v160.5h-18.2V589.1h14.7l124.8 159.5V589.1h18.2v191.4zm142.9 0h-18.2V589.1H556v191.4z"/><linearGradient id="a" x1="299.943" x2="299.943" y1="609.477" y2="147.705" gradientUnits="userSpaceOnUse"><stop offset="0" stop-color="#d1e1d7"/><stop offset="1" stop-color="#00b0ad"/></linearGradient><path fill="url(#a)" d="M299.9 480.5c-1.2 0-2.3-.4-3.4-1.1L85.1 327.8c-2.1-1.5-3.4-4.3-3.4-7.3s1.3-5.8 3.4-7.3l105.7-75.8 6.8 14.5-95.6 68.6 197.9 141.9 197.9-141.9-95.5-68.5 6.8-14.5 105.7 75.8c2.1 1.5 3.4 4.3 3.4 7.3s-1.3 5.8-3.4 7.3L303.3 479.4c-1 .7-2.2 1.1-3.4 1.1z"/><linearGradient id="b" x1="299.943" x2="299.943" y1="609.477" y2="147.705" gradientUnits="userSpaceOnUse"><stop offset="0" stop-color="#d1e1d7"/><stop offset="1" stop-color="#00b0ad"/></linearGradient><path fill="url(#b)" d="M299.9 328.9c-1.2 0-2.3-.4-3.4-1.1L85.1 176.2c-2.1-1.5-3.4-4.3-3.4-7.3s1.3-5.8 3.4-7.3L296.6 10.1c2.1-1.5 4.7-1.5 6.8 0l211.5 151.6c2.1 1.5 3.4 4.3 3.4 7.3s-1.3 5.8-3.4 7.3L303.3 327.8c-1 .8-2.2 1.1-3.4 1.1zM102 169l197.9 141.9 198-141.9-198-141.9L102 169z"/><linearGradient id="c" x1="88.465" x2="88.465" y1="609.477" y2="147.705" gradientUnits="userSpaceOnUse"><stop offset="0" stop-color="#d1e1d7"/><stop offset="1" stop-color="#00b0ad"/></linearGradient><path fill="url(#c)" d="M81.7 169h13.5v151.6H81.7z"/></svg>

<?xml version="1.0" encoding="utf-8"?>
<!-- Generator: Adobe Illustrator 21.1.0, SVG Export Plug-In . SVG Version: 6.00 Build 0)  -->
<svg version="1.1" id="Layer_1" xmlns="http://www.w3.org/2000/svg" xmlns:xlink="http://www.w3.org/1999/xlink" x="0px" y="0px"
	 viewBox="-1.9400000000000546 -6.519999999999982 568.88 807.0400000000001" style="enable-background:new 0 0 566 792;" xml:space="preserve">
<style type="text/css">
	.st0{fill:#00B0AD;}
	.st1{fill:#003B49;}
	.st2{fill:url(#SVGID_1_);}
	.st3{fill:url(#SVGID_2_);}
	.st4{fill:url(#SVGID_3_);}
	.st5{fill:url(#SVGID_4_);}
</style>
<path class="st0" d="M428.4,104l-1.9-1L298.6,9.6L83.8,171l41.1,30l-0.1,0L301,329.6L516.1,168L428.4,104z M142.3,140.4l115.8-87
	l32.3,23.5l-115.8,87L142.3,140.4z M332.2,231.7l-31.9,24l-116.7-85.2l115.7-86.9l75.5,55.1l-83.8,63L332.2,231.7z M383.8,145.3
	l32.2,23.5L341.1,225l-32.2-23.5L383.8,145.3z M431.2,171.1l2.2-1.9l0.7-0.5l-41.3-30.1l31.9-24l73.5,53.6l-115.8,87l-32-23.3
	L431.2,171.1z M383.8,131.9L267,46.7l31.7-23.8l116.7,85.2L383.8,131.9z M133.4,147.1l32.3,23.5L134,194.4l-32.3-23.5L133.4,147.1z
	 M174.7,177.2l117,85.4L260,286.4L143,201L174.7,177.2z M341.5,238.5l32,23.3l-72.5,54.5L269,293L341.5,238.5z"/>
<g>
	<g>
		<path class="st1" d="M168,759.8c0,0-20.4,25.2-63.2,25.2c-56.2,0-95.1-43.7-95.1-99.9c0-56.8,38.9-100.2,95.1-100.2
			c42.8,0,63.2,24.9,63.2,24.9l-10.2,14c0,0-19.5-21.7-52.6-21.7c-45.3,0-76.6,37.6-76.6,83c0,45,31.3,82.6,76.6,82.6
			c33.2,0,52.6-21.7,52.6-21.7L168,759.8z"/>
		<path class="st1" d="M413.1,780.5h-14L273.6,620v160.5h-18.2V589.1h14.7l124.8,159.5V589.1h18.2V780.5z"/>
		<path class="st1" d="M556,780.5h-18.2V589.1H556V780.5z"/>
	</g>
</g>
<g>
	<g>
		<linearGradient id="SVGID_1_" gradientUnits="userSpaceOnUse" x1="299.9435" y1="609.4774" x2="299.9435" y2="147.7053">
			<stop  offset="0" style="stop-color:#D1E1D7"/>
			<stop  offset="1" style="stop-color:#00B0AD"/>
		</linearGradient>
		<path class="st2" d="M299.9,480.5c-1.2,0-2.3-0.4-3.4-1.1L85.1,327.8c-2.1-1.5-3.4-4.3-3.4-7.3s1.3-5.8,3.4-7.3l105.7-75.8
			l6.8,14.5L102,320.5l197.9,141.9l197.9-141.9L402.3,252l6.8-14.5l105.7,75.8c2.1,1.5,3.4,4.3,3.4,7.3s-1.3,5.8-3.4,7.3
			L303.3,479.4C302.3,480.1,301.1,480.5,299.9,480.5z"/>
	</g>
	<g>
		<linearGradient id="SVGID_2_" gradientUnits="userSpaceOnUse" x1="299.9435" y1="609.4774" x2="299.9435" y2="147.7053">
			<stop  offset="0" style="stop-color:#D1E1D7"/>
			<stop  offset="1" style="stop-color:#00B0AD"/>
		</linearGradient>
		<path class="st3" d="M299.9,328.9c-1.2,0-2.3-0.4-3.4-1.1L85.1,176.2c-2.1-1.5-3.4-4.3-3.4-7.3c0-3,1.3-5.8,3.4-7.3L296.6,10.1
			c2.1-1.5,4.7-1.5,6.8,0l211.5,151.6c2.1,1.5,3.4,4.3,3.4,7.3c0,3-1.3,5.8-3.4,7.3L303.3,327.8
			C302.3,328.6,301.1,328.9,299.9,328.9z M102,169l197.9,141.9L497.9,169L299.9,27.1L102,169z"/>
	</g>
	<g>
		<linearGradient id="SVGID_3_" gradientUnits="userSpaceOnUse" x1="88.4649" y1="609.4774" x2="88.4649" y2="147.7053">
			<stop  offset="0" style="stop-color:#D1E1D7"/>
			<stop  offset="1" style="stop-color:#00B0AD"/>
		</linearGradient>
		<rect x="81.7" y="169" class="st4" width="13.5" height="151.6"/>
	</g>
</g>
</svg>
